X:1
T:Sivas, 87.87 D
T:Sivas, 87.87 D
T:James W. Guthrie, 1898
T:Public Domain Courtesy of the Cyber Hymnal™
C:James W. Guthrie, 1898
Z:Public Domain
Z:Courtesy of the Cyber Hymnal™
%%score ( 1 2 ) ( 3 4 )
L:1/8
Q:1/4=103
M:4/4
K:C
V:1 treble 
V:2 treble 
V:3 bass 
V:4 bass 
V:1
 [CE]>[DF] | [EG]2 [EG]2 [FA]2 [EG]2 | [Ge]2 [Ec]4 [EG]>[EG] | [FA]2 [FA]2 [Ac]2 ([GB][FA]) | %4
 [EG]6 [CE]>[DF] | [EG]2 [EG]2 [FA]2 [EG]2 | [Ge]2 [Ec]4 [DB]>[Ec] | [Fd]2 [Ge]2 [FA]2 [FB]2 | %8
 [Ec]6 [DB]>[Ec] | [Fd]2 [Fd]2 [Ge]2 (AB) | [Ec]2 [EG]4 [EG]>[EG] | [FA]2 [FA]2 [Ac]2 ([GB][FA]) | %12
 [EG]6 [CE]>[DF] | [EG]2 [EG]2 [FA]2 [EG]2 | [Ge]2 [Ec]4 [DB]>[Ec] | [Fd]2 [Ge]2 [FA]2 [FB]2 | %16
 [Ec]6 |] %17
V:2
 x2 | x8 | x8 | x8 | x8 | x8 | x8 | x8 | x8 | x6 F2 | x8 | x8 | x8 | x8 | x8 | x8 | x6 |] %17
V:3
 [C,G,]>[C,G,] | [C,C]2 [C,C]2 [C,C]2 [C,C]2 | [C,C]2 [C,G,]4 [C,C]>[C,C] | %3
 [F,C]2 [F,C]2 [F,C]2 [F,C]2 | [C,C]6 [C,G,]>[C,G,] | [C,C]2 [C,C]2 [C,C]2 [C,C]2 | %6
 [C,C]2 [C,G,]4 G,>G, | [G,B,]2 [G,B,]2 [G,C]2 [G,D]2 | [C,C]6 G,>G, | %9
 [G,B,]2 [G,B,]2 [G,B,]2 [G,D]2 | [C,C]2 [C,C]4 [C,C]>[C,C] | [F,C]2 [F,C]2 [F,C]2 [F,C]2 | %12
 [C,C]6 [C,G,]>[C,G,] | [C,C]2 [C,C]2 [C,C]2 [C,C]2 | [C,C]2 [C,G,]4 G,>G, | %15
 [G,B,]2 [G,B,]2 [G,C]2 G,2 | [C,G,]6 |] %17
V:4
 x2 | x8 | x8 | x8 | x8 | x8 | x6 G,>G, | x8 | x6 G,>G, | x8 | x8 | x8 | x8 | x8 | x6 G,>G, | %15
 x6 G,2 | x6 |] %17

